usr/share/icons/biglinux-icons-material-dark/symbolic/status/ime-shuangpin.svg

<?xml version="1.0" encoding="UTF-8"?>
<svg xmlns="http://www.w3.org/2000/svg" xmlns:xlink="http://www.w3.org/1999/xlink" xmlns:cc="http://creativecommons.org/ns#" xmlns:dc="http://purl.org/dc/elements/1.1/" xmlns:rdf="http://www.w3.org/1999/02/22-rdf-syntax-ns#" xmlns:inkscape="http://www.inkscape.org/namespaces/inkscape" xmlns:sodipodi="http://sodipodi.sourceforge.net/DTD/sodipodi-0.dtd" width="22" height="22">
    <style type="text/css" id="current-color-scheme">
      .ColorScheme-Text {
        color:#31363b;
      }
      .ColorScheme-Background {
        color:#eff0f1;
      }
      .ColorScheme-Highlight {
        color:#3daee9;
      }
      .ColorScheme-ViewText {
        color:#31363b;
      }
      .ColorScheme-ViewBackground {
        color:#fcfcfc;
      }
      .ColorScheme-ViewHover {
        color:#93cee9;
      }
      .ColorScheme-ViewFocus{
        color:#3daee9;
      }
      .ColorScheme-ButtonText {
        color:#31363b;
      }
      .ColorScheme-ButtonBackground {
        color:#eff0f1;
      }
      .ColorScheme-ButtonHover {
        color:#93cee9;
      }
      .ColorScheme-ButtonFocus{
        color:#3daee9;
      }
      </style>
    <g transform="translate(44,8e-6) translate(-44,-8e-06)" id="ime-shuangpin">
    <path style="fill:currentColor;fill-opacity:1;stroke:none" d="M 3,3.0019531 3,19 l 16,0 0,-15.9980469 -16,0 z M 4,4 18,4 18,18 4,18 4,4 Z M 5,5 5,6 9.4277344,6 C 9.3567399,6.6433848 9.1095505,8.7368774 8.5585938,10.642578 7.8640436,9.6798255 7.0718951,8.6616876 5.890625,7.1875 l -0.78125,0.6269531 c 1.4174333,1.768857 2.2870807,2.8838839 3.0527344,3.9902349 -1.2932813,3.342269 -3.2636719,4.656249 -3.2636719,4.65625 l 0.5566406,0.832031 c 0,0 1.9707929,-1.362982 3.3652344,-4.488281 0.4371629,0.686564 0.8829906,1.421585 1.4218755,2.375 l 0.86914,-0.490235 C 10.412442,13.452965 9.856111,12.550817 9.2734375,11.677734 10.169908,9.0698901 10.498047,5.5488281 10.498047,5.5488281 L 10.548828,5 5,5 Z m 6,0 0,1 0.589844,0 c 0.101934,0.5915985 0.552462,3.1367245 1.310547,5.09375 0.265281,0.684811 0.549026,1.343749 0.886718,1.992188 -1.288059,2.041728 -3.068359,3.142578 -3.068359,3.142578 l 0.517578,0.855468 c 0,0 1.710317,-1.050173 3.103516,-3.037109 0.655672,1.023639 1.52165,2.030149 2.802734,3.064453 l 0.626953,-0.779297 c -1.383561,-1.117032 -2.21998,-2.147051 -2.84375,-3.230469 0.12558,-0.227385 0.256224,-0.447093 0.367188,-0.693359 C 16.167139,10.468103 17,7.6466006 17,5.5 L 17,5 11,5 Z m 1.607422,1 3.316406,0 c -0.108623,1.8531004 -0.786023,4.318047 -1.542969,5.998047 -0.0025,0.0055 -0.0053,0.01017 -0.0078,0.01563 -0.18806,-0.413838 -0.365555,-0.833366 -0.539063,-1.28125 C 13.175782,9.0332602 12.746688,6.7654286 12.607422,6 Z" class="ColorScheme-Text" id="path6-1"/>
    <rect style="fill:none;fill-opacity:1;stroke:none" id="rect4138-4" width="22" height="22" x="0" y="0"/>
  </g>
</svg>

<svg xmlns="http://www.w3.org/2000/svg" width="22" height="22">
<style id="current-color-scheme" type="text/css">
.ColorScheme-Contrast{color:#31363b}
</style>
<g id="ime-shuangpin">
<path id="path6-1" d="M3 3.002V19h16V3.002zM4 4h14v14H4zm1 1v1h4.428c-.071.643-.318 2.737-.87 4.643-.694-.963-1.486-1.981-2.667-3.456l-.782.627c1.418 1.77 2.287 2.884 3.053 3.99-1.293 3.343-3.264 4.657-3.264 4.657l.557.832s1.97-1.363 3.365-4.488c.437.686.883 1.421 1.422 2.375l.87-.49a46 46 0 0 0-1.839-3.012c.897-2.608 1.225-6.13 1.225-6.13l.05-.548zm6 0v1h.59c.102.592.552 3.137 1.31 5.094.266.685.55 1.343.887 1.992-1.288 2.042-3.068 3.143-3.068 3.143l.517.855s1.71-1.05 3.104-3.037c.656 1.024 1.521 2.03 2.803 3.064l.627-.779c-1.384-1.117-2.22-2.147-2.844-3.23.125-.228.256-.448.367-.694C16.167 10.468 17 7.647 17 5.5V5zm1.607 1h3.317c-.109 1.853-.786 4.318-1.543 5.998l-.008.016a24 24 0 0 1-.539-1.282C13.176 9.033 12.747 6.765 12.607 6" class="ColorScheme-Contrast" style="fill:currentColor;fill-opacity:1;stroke:none"/>
<path id="rect4138-4" d="M0 0h22v22H0z" style="fill:none;fill-opacity:1;stroke:none"/>
</g>
</svg>
